resources/haticons/SVG/envelop.svg

<!-- Generated by IcoMoon.io -->
<svg version="1.1" xmlns="http://www.w3.org/2000/svg" width="24" height="24" viewBox="0 0 24 24">
<title>envelop</title>
<path d="M21.75 3h-19.5c-1.237 0-2.25 1.012-2.25 2.25v15c0 1.237 1.013 2.25 2.25 2.25h19.5c1.237 0 2.25-1.013 2.25-2.25v-15c0-1.238-1.013-2.25-2.25-2.25zM9.345 12.899l-6.345 4.943v-11.757l6.345 6.814zM4.134 6h15.732l-7.866 5.906-7.866-5.906zM9.593 13.165l2.407 2.585 2.407-2.585 4.935 6.335h-14.684l4.935-6.335zM14.655 12.899l6.345-6.814v11.757l-6.345-4.943z"></path>
</svg>

<svg xmlns="http://www.w3.org/2000/svg" width="24" height="24"><path d="M21.75 3H2.25A2.257 2.257 0 0 0 0 5.25v15a2.257 2.257 0 0 0 2.25 2.25h19.5A2.257 2.257 0 0 0 24 20.25v-15A2.257 2.257 0 0 0 21.75 3zM9.345 12.899L3 17.842V6.085l6.345 6.814zM4.134 6h15.732L12 11.906 4.134 6zm5.459 7.165L12 15.75l2.407-2.585 4.935 6.335H4.658l4.935-6.335zm5.062-.266L21 6.085v11.757l-6.345-4.943z"/></svg>
